X:1
T:Five Foot Two, Eyes Of Blue
T:Five foot two, eyes of blue,
T:(has anybody seen my girl?)
T:Ray H
T:Joe Young
T:All Rights Reserved
C:Ray Henderson
Z:All Rights Reserved
L:1/4
M:4/4
K:C
V:1 treble nm="P1"
V:1
"C" E G E z |"E7" E ^G E z/ E/ |"A7" E A E z | E A/E/- E A |"D7" c A c A |"G7" G2 A2 |"C" E4 | %7
w: five foot two,|eyes of blue but|oh! what those|foot could do * has|an- y- bod- y|seen my|girl?|
"Dm7" z4 |"C" E G E z |"E7" E ^G E z |"A7" E A E z | E A/E/- E A |"D7" c A c A |"G7" G2 E2 | %14
w: |turned up nose,|turned down hose,|nev- er had|oth- er beaus, * has|an- y- bod- y|seen my|
"C" C4- | C"^N.C." E ^D E |"E7" B c B z/ E/ | B c B z |"A7" B A B A- | A3 z |"D7" A B A z/ D/ | %21
w: girl?|* how if you|run in- to a|five foot two|cov- ered with fur,||dia- mond rings, and|
 A B A z |"G7" B d B G | F/ E D/- D ^D |"C" E G E z |"E7" E ^G E z |"A7" E A E A | E A/E/- E A | %28
w: all those things,|bet- cha life it|is- nt her * but|could she love,|could she woo?|could she, would she,|could she coo? * has|
"D7" c A c A |"G7" G2 A2 |"C" c4- | c2 z2 |] %32
w: an- y- bod- y|seen my|girl?||

